X: 222	% 60
T: Indian Call Waltz
S: Viola Ruth "Pioneer Western Folk Tunes" 1948 p.22 #1
R: waltz
Z: 2019 John Chambers <jc:trillian.mit.edu>
N: "Sul A" above bar 2; meaning unknown.
M: 3/4
L: 1/8
K: D
V: 1 name="60"
A2 |\
"^gliss"{d}f6 | "^gliss"{d}f6 | ("^gliss"{d}f2d3B) | (A2F2A2) |\
"^gliss"{d}g6 | "^gliss"{d}g6 | ({d}g2A3B) | (A2F2D2) |\
F6 | E6 |
(D2F2A2) | d6 | \
(e3def) | (g2B2c2) | (d2f2e2) | d4D2 |:\
(F3EFE) | (F3A2{c}d2) | (F3EFE) | (F2A2{c}d2) |
(E3DED) | (E2F2E2) | (D2F2E2) |1 D4E2 :|2 D4 \
|: A2 | ([f3d3]efe) | ([f2d2]a2[g2B2]) | ([B3G3][AG][BG][AG]) \
| ([B2G2]c2d2) | ([e3c3]ded) |
[e2c2][f2d2][e2c2] | ([A3F3]GAB) |\
(AGFAde) | ([f3d3]efe) | ([f2d2]a2[g2B2]) | ([B3G3][AG][BG][AG]) |\
([B2G2]c2d2) | ([e3c3]ded) | ([e2c2][f2c2][e2c2]) | ([d2F2][f2d2][e2A2]) |\
[d4F4] :|
